pic/icon-figure-nav.svg

<svg xmlns="http://www.w3.org/2000/svg" width="30" height="30" viewBox="0 0 30 30">
  <path fill-rule="evenodd" d="M25,0 C27.7614237,0 30,2.23857625 30,5 L30,25 C30,27.7614237 27.7614237,30 25,30 L5,30 C2.23857625,30 0,27.7614237 0,25 L0,5 C0,2.23857625 2.23857625,0 5,0 L25,0 Z M23,10 L23,18.5 C23,19.8254834 21.9684641,20.9100387 20.6643757,20.9946823 L20.5,21 L7,21 L7.00548574,21.1492623 C7.07801742,22.1323792 7.86122651,22.9178648 8.84334953,22.9939555 L9,23 L23,23 C24.0543618,23 24.9181651,22.1841222 24.9945143,21.1492623 L25,21 L25,12 C25,10.9456382 24.1841222,10.0818349 23.1492623,10.0054857 L23,10 Z M20,7 L7,7 C5.9456382,7 5.08183488,7.81587779 5.00548574,8.85073766 L5,9 L5,18 C5,19.0543618 5.81587779,19.9181651 6.85073766,19.9945143 L7,20 L20,20 C21.0543618,20 21.9181651,19.1841222 21.9945143,18.1492623 L22,18 L22,9 C22,7.9456382 21.1841222,7.08183488 20.1492623,7.00548574 L20,7 Z M9.45349375,11.8064697 C9.7304224,11.3893449 10.2821643,11.236836 10.7392871,11.4692997 C10.8745191,11.5380701 10.9918769,11.6364692 11.0829319,11.7565971 L11.1461597,11.8506438 L12.8962894,14.8022956 L12.9615553,14.8991775 C13.2396164,15.2643145 13.7337252,15.3926243 14.1539225,15.2100091 L14.2664713,15.1524403 L16.6449719,13.6311001 L16.7553113,13.5698535 C17.1312324,13.3910998 17.580898,13.4651311 17.8796726,13.7549644 L17.9645536,13.8483514 L19.9926234,16.3810493 L20.0649471,16.4838338 C20.3249799,16.9072905 20.2350377,17.4680314 19.8370963,17.7866848 C19.6951995,17.9003093 19.5257296,17.9725626 19.3472762,17.9969189 L19.2120421,18.0061035 L7.92361915,18.0061035 L7.80699802,17.9993758 C7.30965934,17.9416107 6.92361915,17.5189393 6.92361915,17.0061035 C6.92361915,16.8879448 6.94455741,16.7710399 6.98515418,16.6607285 L7.03225639,16.5528128 L9.39463363,11.9073718 L9.45349375,11.8064697 Z M16,9 C17.1045695,9 18,9.8954305 18,11 C18,12.1045695 17.1045695,13 16,13 C14.8954305,13 14,12.1045695 14,11 C14,9.8954305 14.8954305,9 16,9 Z"/>
</svg>

<svg xmlns="http://www.w3.org/2000/svg" width="30" height="30" viewBox="0 0 30 30"><path fill-rule="evenodd" d="M25 0a5 5 0 0 1 5 5v20a5 5 0 0 1-5 5H5a5 5 0 0 1-5-5V5a5 5 0 0 1 5-5h20Zm-2 10v8.5a2.5 2.5 0 0 1-2.336 2.495L20.5 21H7l.005.15a2 2 0 0 0 1.838 1.844L9 23h14a2 2 0 0 0 1.995-1.85L25 21v-9a2 2 0 0 0-1.85-1.995L23 10Zm-3-3H7a2 2 0 0 0-1.995 1.85L5 9v9a2 2 0 0 0 1.85 1.995L7 20h13a2 2 0 0 0 1.995-1.85L22 18V9a2 2 0 0 0-1.85-1.995L20 7ZM9.453 11.806a1 1 0 0 1 1.63-.05l.063.095 1.75 2.951.066.097a1 1 0 0 0 1.192.311l.112-.058 2.379-1.52.11-.062a1 1 0 0 1 1.125.185l.085.093 2.028 2.533.072.103a1 1 0 0 1-.718 1.513l-.135.01H7.924l-.117-.008a1 1 0 0 1-.822-1.338l.047-.108 2.363-4.646.058-.1ZM16 9a2 2 0 1 1 0 4 2 2 0 0 1 0-4Z"/></svg>
